X: 77
T: Over the Moor to Maggie
R: reel
Z: 2012 John Chambers <jc@trillian.mit.edu>
B: "100 Essential Irish Session Tunes" 1995 Dave Mallinson, ed.
M: 4/4
L: 1/8
K: G
BA |\
"G"G3A BGBd | "Em"efge dBAG | "Am"EAAG ABAG | "D7"EAAG AcBA |\
"G"G2GA BGBd | "Em"efge dBAG | "Am"EGGF GAGE | "D7"DGGF "G"G2 :|
|: ga |\
"G"b3g "B7"a3g | "Em"gage d2Bd | "Am"eaag abag | "D7"eaag a2ga |\
"G"b2bg "B7"a2af | "Em"gage d2Bd | "A7"eggf gage | "D7"dggf "G"g2 :|
|: cd |\
"C"e3c "Bm"d3B | "Am"c3A "Em"B2AG | "Am"EAAG ABAG | "D7"EAAG ABcd |\
"C"e2ec "Bm"d2dB | "Am"c2cA "Em"B2AG | "A7"EGGF GAGE | "D7"DGGF "G"G2 :|

%%sep 2 1 500
%%sep 1 1 500

